!! 00006] TT[TB
!! Eigene Aufnahme
!!!OTL: Huaihua jishi kai
!!!ARE: Asia, China,Sichuan, Yibin
!! Ethnic Group: Han
!! II, 247
!!!SCT: C0149
!!!YEM: Copyright 1995, estate of Helmut Schaffrath.
**kern
*ICvox
*Ivox
*M2/4
*k[f#]
*G:
{16gg
16gg
16gg
16ee
4ee
=1
16dd
16gg
[8ee
8ee]
16dd
16ee
=2
[2b
=3
4b]
4r}
=4
{16dd
16dd
16b
16ee
4a
=5
8dd
8b
8.ee
16b
=6
2a
=7
2e}
=8
{16e
16g
16g
16e
8e
16r
16gg
=9
8ee
16ee
16gg
8ee
16dd
16ee
=10
2b}
=11
{2a
=12
8dd
16b
16dd
8b
8ee
=13
2a}
=14
{8dd
8b
8.ee
16b
=15
2a
=16
[2e
=17
2e]}
==
!!!AGN: Shange; Qingge
!! Verzierungen
!!    Als Tonbeispiel vorhanden; Signatur: 00151, Cut Nr.: 02 ( Variante )
!!    Textvariante, Melodie erhalten. Inhalt: Ein Maedchen schaut sich
!!    die Baeume an und traeumt sie als Geliebte. Die Mutter fragt, was
!!    es da zu sehen gaebe. - Saengerin: Huang Bai
!!    VARIANTE, bes. hinsichtlich der Tonlaengen. Hier waere vermutl.
!!    die Taktart "FREI" angebrachter. Die letzten beiden Phrasen
!!    wurden nach Gehoer eingeteilt.
!!!ONB: ESAC (Essen Associative Code) Database: CHINA_083
!!!AMT: simple duple
!!!AIN: vox
!!!EED: Helmut Schaffrath
!!!EEV: 1.0
*-
!!!ONB: Tied note syntax fixed by Craig Sapp, 2004/05/03/
